X:56
T:Highlander's Farewell , The
C:arr. Carlo Minasi
M:2/4
L:1/8
B:Chappell's One Hundred Scotch Melodies
B:Arranged for the Concertina by Carlo Minasi
Q:"Allegretto  "1/4=140
Z:Peter Dunk 2012
K:D
!p!(F/E/)|(D>EFB)|(AF)(Fd)|(AF)(FD)|\
[E2C2A,2] [ECA,] (F/E/)|(D>EF[AF])|
([dF]>efe)|[dBG]B[AFD]F|D2 D !mf!||\
A|([dF]>[eA][fd][eA])|([dF][BG][AF][BG])|
([dF]>e[fd][df])|[e2c2E2A,2][ecEA] (d/e/)|\
(f>edB)|A[gc_B]H[fd=B]>e|\
"_risoluto."(d>BAF)|D2 [dAFD]||

